X: 1
T: O'Connell's Farewell To Dublin
M: 4/4
L: 1/8
R: reel
K: Ador
AcBG A2 (3Bcd | eaaf gedB | G2 GA GEDE | GABG AGEG |
AcBG A2 (3Bcd | eaaf gedA | (3Bcd ef gfed |1gedB A3 G :|2 gedB A3 B ||
c2 cB cdef | g2 af ge d2 | dBGB d3 e |dBGB d2 dB |
c2 cB cdef | g2 af gedA |[1 (3Bcd ef gfed |
gedB A3 B :|2 (3Bcd ef gfed | gedB A2 (3 Bcd ||
eaag a2 ab | c'2 ba agef | gbaf gece |gbaf gedf |
eaag a2 ab | c'2 ba aged |(3Bcd af gfed |1 gedB A2 (3Bcd :|2 gedB A3 B ||
(3cde AB (3cde Ac | B2 GB dBGB | (3cde AB (3cde  A2 | (3Bcd af gedB |
(3cde AB (3cde Ac | B2 GB dBGA | (3Bcd af gfed | gedB A4 :|
